!!!OTL: MEIN GMUETH IST MIR VERWIRRET
!!!ARE: Europa, Mitteleuropa, Deutschland
!!!SCT: E0476
!!!YEM: Copyright 1995, estate of Helmut Schaffrath.
**kern
*ICvox
*Ivox
*M4/4
*k[]
*C:
=1
{2E
2A
=2
4G
2F
4E
=3
2D
2E}
=4
{2B
2c
=5
4c
2B
4B
=6
1A}
=7
{2E
2A
=8
4G
2F
4E
=9
2D
2E}
=10
{2B
2c
=11
4c
2B
4B
=12
2A
4r}
{4c
=13
4B
4G
4A
4B
=14
2.c}
{4G
=15
4A
4G
4A
4F
=16
1E}
=17
{2c
2B
=18
4d
2c
4B
=19
2A
2B}
=20
{2E
2F
=21
4E
2D
4D
=22
1E}
==
!!!AGN: Liebes - Lied
!!!ONB: ESAC (Essen Associative Code) Database: ERK1
!!!AMT: simple quadruple
!!!AIN: vox
!!!EED: Helmut Schaffrath
!!!EEV: 1.0
*-
